build/svg/cmd/sc_bmpmask.svg

<?xml version="1.0" encoding="UTF-8" standalone="no"?>
<svg
   xmlns:dc="http://purl.org/dc/elements/1.1/"
   xmlns:cc="http://creativecommons.org/ns#"
   xmlns:rdf="http://www.w3.org/1999/02/22-rdf-syntax-ns#"
   xmlns:svg="http://www.w3.org/2000/svg"
   xmlns="http://www.w3.org/2000/svg"
   xmlns:xlink="http://www.w3.org/1999/xlink"
   xmlns:sodipodi="http://sodipodi.sourceforge.net/DTD/sodipodi-0.dtd"
   xmlns:inkscape="http://www.inkscape.org/namespaces/inkscape"
   viewBox="0 0 16 16"
   version="1.1"
   id="svg4"
   sodipodi:docname="sc_bmpmask.svg"
   inkscape:export-filename="/home/jupiter007/Libreoffice yaru theme fullcolor/build/cmd/sc_bmpmask.png"
   inkscape:export-xdpi="95"
   inkscape:export-ydpi="95"
   inkscape:version="0.92.5 (2060ec1f9f, 2020-04-08)"><metadata
   id="metadata10">
  <rdf:RDF>
    <cc:Work
       rdf:about="">
      <dc:format>image/svg+xml</dc:format>
      <dc:type
         rdf:resource="http://purl.org/dc/dcmitype/StillImage" />
    </cc:Work>
  </rdf:RDF>
</metadata>
<defs
   id="defs8">
  <linearGradient
     id="d"
     gradientTransform="matrix(0.49699112,0,0,0.49689181,-4.9283554,-1.964633)"
     gradientUnits="userSpaceOnUse"
     x1="19.065418"
     x2="23.077925"
     y1="22.744974"
     y2="26.757523">
    <stop
       offset="0"
       stop-opacity=".46087"
       id="stop11" />
    <stop
       offset=".49060908"
       stop-opacity="0"
       id="stop13" />
    <stop
       offset=".60074764"
       stop-opacity="0"
       id="stop15" />
    <stop
       offset="1"
       stop-opacity=".588235"
       id="stop17" />
  </linearGradient>
  <linearGradient
     id="c"
     gradientTransform="matrix(0.49699112,0,0,0.49689181,-4.7249664,-2.117175)"
     gradientUnits="userSpaceOnUse"
     x1="24.032852"
     x2="32.349339"
     xlink:href="#b"
     y1="13.223127"
     y2="21.888092" />
  <linearGradient
     id="b">
    <stop
       offset="0"
       stop-opacity=".66087"
       id="stop3" />
    <stop
       offset=".5"
       stop-opacity="0"
       id="stop5" />
    <stop
       offset="1"
       stop-opacity=".669565"
       id="stop7" />
  </linearGradient>
  <linearGradient
     id="a"
     gradientUnits="userSpaceOnUse"
     x1="10.507685"
     x2="13.975886"
     xlink:href="#b"
     y1="2.1499979"
     y2="5.467495"
     gradientTransform="translate(-0.01764743)" />
</defs>
<sodipodi:namedview
   pagecolor="#ffffff"
   bordercolor="#666666"
   borderopacity="1"
   objecttolerance="10"
   gridtolerance="10"
   guidetolerance="10"
   inkscape:pageopacity="0"
   inkscape:pageshadow="2"
   inkscape:window-width="1920"
   inkscape:window-height="1011"
   id="namedview6"
   showgrid="true"
   inkscape:zoom="29.5"
   inkscape:cx="6.9039205"
   inkscape:cy="5.5585663"
   inkscape:window-x="0"
   inkscape:window-y="32"
   inkscape:window-maximized="1"
   inkscape:current-layer="svg4">
  <inkscape:grid
     type="xygrid"
     id="grid880" />
</sodipodi:namedview>
/&gt;<path
   style="fill:#000000;fill-rule:evenodd;stroke:#000000;stroke-width:2;stroke-linejoin:round;stroke-opacity:0.65882401;fill-opacity:1;opacity:0.6;stroke-miterlimit:4;stroke-dasharray:none"
   inkscape:connector-curvature="0"
   d="m 8.0836855,6.2018213 c 0,0 -6.182332,5.6712617 -6.47015,6.2483287 -0.294067,0.589594 -0.05305,1.218325 -0.69848203,2.536086 C 2.2993845,14.354554 2.9813115,14.606432 3.4884075,14.324649 4.0075335,14.036182 9.811509,8.0028095 9.811509,8.0028095 Z"
   id="path882" />
<path
   style="opacity:0.6;fill:#000000;fill-rule:evenodd;stroke:#000000;stroke-width:2;stroke-linejoin:round;stroke-miterlimit:4;stroke-dasharray:none;stroke-opacity:1"
   inkscape:connector-curvature="0"
   d="m 13.605408,10.506246 c -0.787934,1.441304 -2.857598,4.505758 0,4.4809 2.813229,-0.02447 0.560206,-3.091553 0,-4.4809 z"
   id="path878" />
<path
   id="path20"
   d="m 13.605408,10.506246 c -0.787934,1.441304 -2.857598,4.505758 0,4.4809 2.813229,-0.02447 0.560206,-3.091553 0,-4.4809 z"
   inkscape:connector-curvature="0"
   style="fill:#ffffff;fill-rule:evenodd;stroke:none;stroke-width:0.5;stroke-opacity:0.65882401" />
<path
   id="path24"
   d="m 8.0836855,6.2018213 c 0,0 -6.182332,5.6712617 -6.47015,6.2483287 -0.294067,0.589594 -0.05305,1.218325 -0.69848203,2.536086 C 2.2993845,14.354554 2.9813115,14.606432 3.4884075,14.324649 4.0075335,14.036182 9.811509,8.0028095 9.811509,8.0028095 Z"
   inkscape:connector-curvature="0"
   style="fill:#ffffff;fill-rule:evenodd;stroke:none;stroke-width:0.5;stroke-linejoin:round;stroke-opacity:0.65882401;fill-opacity:1" />
<path
   id="path26"
   d="m 11.209671,9.3020856 0.624958,-0.624833 -0.675971,-1.9157077 c 0,0 -0.03436,-0.258196 0.288701,-0.278778 C 13.18258,6.3722179 14.960604,4.324248 15.046342,2.9300949 15.121002,1.716073 13.940611,0.93570602 12.869778,1.020159 11.800444,1.104489 10.041506,2.5305939 9.60296,4.329311 9.53959,4.589231 9.298036,4.634216 9.298036,4.634216 L 7.2703345,4.091004 6.6707045,4.690515 Z"
   inkscape:connector-curvature="0"
   style="fill:#6d6d6d;fill-opacity:1;fill-rule:evenodd;stroke:#6d6d6d;stroke-width:0.5;stroke-opacity:1" />
</svg>

<svg xmlns="http://www.w3.org/2000/svg" viewBox="0 0 16 16"><defs><linearGradient id="a"><stop offset="0" stop-opacity=".661"/><stop offset=".5" stop-opacity="0"/><stop offset="1" stop-opacity=".67"/></linearGradient></defs>/&gt;<path d="M8.084 6.202S1.9 11.873 1.614 12.45c-.295.59-.054 1.218-.699 2.536 1.384-.631 2.066-.38 2.573-.661.52-.289 6.324-6.322 6.324-6.322z" fill-rule="evenodd" stroke="#000" stroke-width="2" stroke-linejoin="round" stroke-opacity=".659" opacity=".6"/><path d="M13.605 10.506c-.788 1.442-2.857 4.506 0 4.481 2.814-.024.56-3.091 0-4.48z" opacity=".6" fill-rule="evenodd" stroke="#000" stroke-width="2" stroke-linejoin="round"/><path d="M13.605 10.506c-.788 1.442-2.857 4.506 0 4.481 2.814-.024.56-3.091 0-4.48zM8.084 6.202S1.9 11.873 1.614 12.45c-.295.59-.054 1.218-.699 2.536 1.384-.631 2.066-.38 2.573-.661.52-.289 6.324-6.322 6.324-6.322z" fill="#fff" fill-rule="evenodd"/><path d="M11.21 9.302l.625-.625-.676-1.915s-.035-.259.288-.28c1.736-.11 3.514-2.158 3.6-3.552.074-1.214-1.106-1.994-2.177-1.91-1.07.084-2.828 1.51-3.267 3.31-.063.26-.305.304-.305.304L7.27 4.091l-.6.6z" fill="#6d6d6d" fill-rule="evenodd" stroke="#6d6d6d" stroke-width=".5"/></svg>
